X:554
T: IN DEN GARTEN WOLLN WIR GEHN
N: E0528
O: Europa, Mitteleuropa, Deutschland, Sueddeutschland, Franken
R: Liebes - Lied
M: 4/4
L: 1/8
K: G
 | G3AB2B2 | A2ABG2D2 |
B3cd2d2 | c2cdB2G2 |
d2d2e2e2 | c2ced4 |
B2Bdc4 | A2AcB4 |
G3Bd2d2 | dcc2B2z2

@@@ Tune index: 4204
